packages/kaspersky-hexa-ui-icons/src/iconsSVGs/24/Flush.svg

<svg width="24" height="24" viewBox="0 0 24 24" fill="none" xmlns="http://www.w3.org/2000/svg">
<path fill-rule="evenodd" clip-rule="evenodd" d="M17.4225 1C16.6493 1 16.0225 1.6268 16.0225 2.4V5.6C16.0225 6.3732 16.6493 7 17.4225 7H20.6C21.3732 7 22 6.3732 22 5.6V2.4C22 1.6268 21.3732 1 20.6 1H17.4225ZM18.0225 5V3H20V5H18.0225Z" fill="black"/>
<path d="M9.29289 2.29289C8.90237 2.68342 8.90237 3.31658 9.29289 3.70711L11.5858 6H8.96959C5.11561 6 2 9.1388 2 13C2 16.8612 5.1156 20 8.96959 20H12.4862C13.0385 20 13.4862 19.5523 13.4862 19C13.4862 18.4477 13.0385 18 12.4862 18H8.96959C6.22974 18 4 15.7662 4 13C4 10.2338 6.22975 8 8.96959 8H11.5858L9.29289 10.2929C8.90237 10.6834 8.90237 11.3166 9.29289 11.7071C9.68342 12.0976 10.3166 12.0976 10.7071 11.7071L14.7071 7.70711C15.0976 7.31658 15.0976 6.68342 14.7071 6.29289L10.7071 2.29289C10.3166 1.90237 9.68342 1.90237 9.29289 2.29289Z" fill="black"/>
<path fill-rule="evenodd" clip-rule="evenodd" d="M16.0225 10.4C16.0225 9.6268 16.6493 9 17.4225 9H20.6C21.3732 9 22 9.6268 22 10.4V13.6C22 14.3732 21.3732 15 20.6 15H17.4225C16.6493 15 16.0225 14.3732 16.0225 13.6V10.4ZM18.0225 11V13H20V11H18.0225Z" fill="black"/>
<path fill-rule="evenodd" clip-rule="evenodd" d="M17.4225 17C16.6493 17 16.0225 17.6268 16.0225 18.4V21.6C16.0225 22.3732 16.6493 23 17.4225 23H20.6C21.3732 23 22 22.3732 22 21.6V18.4C22 17.6268 21.3732 17 20.6 17H17.4225ZM20 21H18.0225V19H20V21Z" fill="black"/>
</svg>

<svg xmlns="http://www.w3.org/2000/svg" width="24" height="24" fill="none" viewBox="0 0 24 24"><path fill="#000" fill-rule="evenodd" d="M17.4225 1c-.7732 0-1.4.6268-1.4 1.4v3.2c0 .7732.6268 1.4 1.4 1.4H20.6c.7732 0 1.4-.6268 1.4-1.4V2.4c0-.7732-.6268-1.4-1.4-1.4zM9.2929 2.2929c-.3905.3905-.3905 1.0237 0 1.4142L11.5858 6H8.9696C5.1156 6 2 9.1388 2 13s3.1156 7 6.9696 7h3.5166c.5523 0 1-.4477 1-1s-.4477-1-1-1H8.9696C6.2297 18 4 15.7662 4 13s2.2297-5 4.9696-5h2.6162l-2.2929 2.2929c-.3905.3905-.3905 1.0237 0 1.4142s1.0237.3905 1.4142 0l4-4c.3905-.3905.3905-1.0237 0-1.4142l-4-4c-.3905-.3905-1.0237-.3905-1.4142 0M18.0225 5V3H20v2zm-2 5.4c0-.7732.6268-1.4 1.4-1.4H20.6c.7732 0 1.4.6268 1.4 1.4v3.2c0 .7732-.6268 1.4-1.4 1.4h-3.1775c-.7732 0-1.4-.6268-1.4-1.4zm2 .6v2H20v-2zm-.6 6c-.7732 0-1.4.6268-1.4 1.4v3.2c0 .7732.6268 1.4 1.4 1.4H20.6c.7732 0 1.4-.6268 1.4-1.4v-3.2c0-.7732-.6268-1.4-1.4-1.4zM20 21h-1.9775v-2H20z"/></svg>
